X:215
T:Adan, si soit que me feme amés tant
C:Adam de la Halle
R:Jeu-parti
O:XIIIe
M:6/8
L:1/8
Q:1/4=120
K:F 
%%continueall 1
%%maxshrink 0.6
V:1
D2A A2B | A2G2<F2 | G2A B2A | G2-Gz2z | 
A2G2<F2 | E2F2<G2 | A2G GFG | F2-Fz2z | 
D2A A2B | A2G2<F2 | G2A B2A | G2-Gz2z | 
A2G2<F2 | E2F2<G2 | A2G GFG | F2-Fz2z | 
G3 GAG | F3 A2B | c2A BAG | A2-Az2z | 
d2c2<A2 | G2F G2A | F2G FED | C2-Cz2z | 
F3 GAB | A2G A2F | G2A BA/2G/2F/2E/2 | F2G2<F2 | 
F3 A2G | F3 E2G | F3 FED | E3 F3 |]




%%header "$P0	 $IR 	$P1"
%%footer $D - Éditions Galouvielle - 2009 - À usage librement privé dans le cadre familial

